svg/black/maid.svg

<svg xmlns="http://www.w3.org/2000/svg" width="32" height="32" viewBox="0 0 32 32">
  <g fill-rule="evenodd">
    <path d="M16,32 C7.163444,32 0,24.836556 0,16 C0,7.163444 7.163444,0 16,0 C24.836556,0 32,7.163444 32,16 C32,24.836556 24.836556,32 16,32 Z M9.29142857,19.3333333 L20.2457143,25.6410256 C22.5085714,24.3589744 23.64,23.9487179 23.64,20.2051282 L23.64,7.58974359 C21.3771429,6.30769231 20.4514286,5.53846154 17.2114286,7.38461538 L6.25714286,13.6923077 C6.25714286,16.2564103 6.05142857,17.4358974 9.29142857,19.3333333 Z M17.5250854,14.2246552 L17.5250854,17.0785675 L15.0368652,15.6516113 L17.5250854,14.2246552 Z"/>
    <path fill-rule="nonzero" d="M17.52,20.2051282 L6.25714286,13.6923077 L17.2114286,7.38461538 C20.4514286,5.53846154 21.3771429,6.30769231 23.64,7.58974359 L12.3771429,14.1025641 L17.52,17.0769231 L17.52,20.2051282 Z" opacity=".402"/>
    <path fill-rule="nonzero" d="M12.3771429,14.1025641 L23.64,7.58974359 L23.64,20.2051282 C23.64,23.9487179 22.5085714,24.3589744 20.2457143,25.6410256 L20.2457143,12.6666667 L15.0514286,15.6410256 L12.3771429,14.1025641 Z" opacity=".802"/>
  </g>
</svg>

<svg xmlns="http://www.w3.org/2000/svg" width="32" height="32"><g fill-rule="evenodd"><path d="M16 32C7.163 32 0 24.837 0 16S7.163 0 16 0s16 7.163 16 16-7.163 16-16 16zM9.291 19.333l10.955 6.308c2.263-1.282 3.394-1.692 3.394-5.436V7.59c-2.263-1.282-3.189-2.052-6.429-.205L6.257 13.692c0 2.564-.206 3.744 3.034 5.641zm8.234-5.108v2.854l-2.488-1.427 2.488-1.427z"/><path fill-rule="nonzero" d="M17.52 20.205L6.257 13.692l10.954-6.307c3.24-1.847 4.166-1.077 6.429.205l-11.263 6.513 5.143 2.974v3.128z" opacity=".402"/><path fill-rule="nonzero" d="M12.377 14.103L23.64 7.59v12.615c0 3.744-1.131 4.154-3.394 5.436V12.667L15.05 15.64l-2.674-1.538z" opacity=".802"/></g></svg>
